X:186
T:Hills of Glenorchy, The
R:Jig
M:6/8
%%printtempo 0
Q:180
K:Edor
(ud>A)|:\
"Em"(B2.E) E>FE| B>AB "G"(d2B)| "D"(A2.D) D>ED| F>DF "Bm7"Adc|
"Em"(B2.E) "Em/F#"E>FE| "Em/G"B>AB "A"e3| "Bm"d>Ad "D"AFD|1 "Em"E>FE "Em/B"uE2(ud/c/):|2"Em"E>FE "Em/B"(E2.B)|
|: "Em"e>fe edB |e>fg "A7"(f2.e)| "D"d>ed dAF| d>cd "Bm7"fed|
"Em"e>fe "Em/F#"edB| "Em/G"e>fg "A7"(f2.e)| "D"d>cd "Bm7"AFD|1 "Em"E>FE (E2.B):|2 "Em"E>FE E2|]
